src/lib/packages/icons/src/assets/line/heart-check.svg

<svg width="24" height="24" viewBox="0 0 24 24" fill="none" xmlns="http://www.w3.org/2000/svg">
<path d="M20.717 14.079C21.112 13.278 21.402 12.453 21.567 11.613C22.045 9.14598 21.567 6.74503 20.29 5.18903C19.257 3.92903 17.768 3.259 15.983 3.25C15.976 3.25 15.97 3.25 15.964 3.25C13.928 3.25 12.687 4.40898 12 5.39398C11.312 4.40798 10.072 3.25 8.03404 3.25C8.02804 3.25 8.021 3.25 8.015 3.25C6.235 3.259 4.74702 3.93 3.71202 5.19C2.43402 6.747 1.95499 9.148 2.43199 11.612C3.66099 17.969 11.3619 21.534 11.6889 21.683C11.7879 21.728 11.894 21.75 12 21.75C12.106 21.75 12.2099 21.728 12.3089 21.684C12.3429 21.668 13.061 21.342 14.083 20.72C14.891 21.355 15.896 21.75 17 21.75C19.619 21.75 21.75 19.619 21.75 17C21.75 15.893 21.354 14.887 20.717 14.079ZM12.0019 20.166C10.5979 19.451 4.85701 16.254 3.90501 11.328C3.51201 9.297 3.87393 7.35901 4.87193 6.14301C5.62493 5.22601 6.68495 4.75798 8.02195 4.75098C8.02595 4.75098 8.03004 4.75098 8.03404 4.75098C10.412 4.75098 11.2549 7.13003 11.2879 7.22803C11.3909 7.53303 11.6759 7.73801 11.9969 7.73901C11.9979 7.73901 11.999 7.73901 12.001 7.73901C12.321 7.73901 12.606 7.53398 12.711 7.22998C12.745 7.12898 13.588 4.75 15.964 4.75C15.968 4.75 15.9719 4.75 15.9759 4.75C17.3169 4.757 18.378 5.22499 19.13 6.14099C20.127 7.35499 20.487 9.29399 20.094 11.326C19.983 11.893 19.783 12.451 19.545 13.003C18.808 12.532 17.938 12.25 17.001 12.25C14.382 12.25 12.251 14.381 12.251 17C12.251 17.96 12.5419 18.851 13.0329 19.599C12.5999 19.852 12.2369 20.047 12.0019 20.166ZM17 20.25C15.208 20.25 13.75 18.792 13.75 17C13.75 15.208 15.208 13.75 17 13.75C18.792 13.75 20.25 15.208 20.25 17C20.25 18.792 18.792 20.25 17 20.25ZM18.78 15.636C19.073 15.929 19.073 16.404 18.78 16.697L17.113 18.364C16.972 18.504 16.782 18.583 16.583 18.583C16.384 18.583 16.193 18.504 16.053 18.363L15.22 17.53C14.927 17.237 14.927 16.762 15.22 16.469C15.513 16.177 15.988 16.176 16.281 16.469L16.584 16.772L17.7209 15.636C18.0129 15.344 18.487 15.344 18.78 15.636Z" fill="currentColor"/>
</svg>

<svg xmlns="http://www.w3.org/2000/svg" width="24" height="24" fill="none"><path fill="currentColor" d="M20.717 14.079a9.896 9.896 0 0 0 .85-2.466c.478-2.467 0-4.868-1.277-6.424-1.033-1.26-2.522-1.93-4.307-1.939h-.019c-2.036 0-3.277 1.159-3.964 2.144-.688-.986-1.928-2.144-3.966-2.144h-.019c-1.78.009-3.268.68-4.303 1.94-1.278 1.557-1.757 3.958-1.28 6.422 1.229 6.357 8.93 9.922 9.257 10.071a.751.751 0 0 0 .62.001c.034-.016.752-.342 1.774-.964A4.704 4.704 0 0 0 17 21.75 4.756 4.756 0 0 0 21.75 17a4.7 4.7 0 0 0-1.033-2.921Zm-8.715 6.087c-1.404-.715-7.145-3.912-8.097-8.838-.393-2.031-.031-3.969.967-5.185.753-.917 1.813-1.385 3.15-1.392h.012c2.378 0 3.22 2.379 3.254 2.477a.75.75 0 0 0 .709.511H12c.32 0 .605-.205.71-.509.034-.101.877-2.48 3.253-2.48h.012c1.34.007 2.402.475 3.154 1.391.997 1.214 1.357 3.153.964 5.185-.111.567-.311 1.125-.549 1.677A4.71 4.71 0 0 0 17 12.25 4.756 4.756 0 0 0 12.25 17c0 .96.29 1.851.782 2.599-.433.253-.796.448-1.031.567ZM17 20.25A3.254 3.254 0 0 1 13.75 17 3.254 3.254 0 0 1 17 13.75 3.254 3.254 0 0 1 20.25 17 3.254 3.254 0 0 1 17 20.25Zm1.78-4.614a.75.75 0 0 1 0 1.061l-1.667 1.667a.752.752 0 0 1-1.06-.001l-.833-.833a.75.75 0 1 1 1.061-1.061l.303.303 1.137-1.136a.75.75 0 0 1 1.059 0Z"/></svg>
